X: 8750
T: Cuban, The
R: polka
M: 2/4
K: Dmajor
A2 BA|A/B/c/A/ d2|EE/D/ G/E/E/D/|EE/D/ G/E/D/E/|
A2 BA|A/B/c/A/ d2|EE/D/ GE|1 D2 D2:|2 D2 Dd/c/||
K:G
BD BD/G/|BB cc/B/|AF AB/A/|G/F/G/A/ dd/c/|
BD BD/G/|BB c>B|A/B/A/G/ F/D/E/F/|1 G2 Gd/c/:|2 G2 G2||

